assets/Clutch bag/Flat/clutch_bag_flat.svg

<svg width="32" height="32" viewBox="0 0 32 32" fill="none" xmlns="http://www.w3.org/2000/svg">
<path d="M4.49768 10.4566C4.93768 10.7766 5.54768 10.7266 5.92768 10.3266C6.30768 9.93656 6.33768 9.32656 6.00768 8.89656L4.38768 6.79656C3.97768 6.27656 3.19768 6.22656 2.73768 6.70656L2.21768 7.24656C1.75768 7.72656 1.81768 8.50656 2.35768 8.89656L4.49768 10.4566ZM4.71768 9.14656C4.94768 8.90656 5.33768 8.89656 5.57768 9.13656C5.81768 9.37656 5.82768 9.75656 5.58768 9.99656C5.35768 10.2466 4.96768 10.2466 4.72768 10.0166C4.48768 9.77656 4.47768 9.38656 4.71768 9.14656Z" fill="#F9C23C"/>
<path d="M3.08319 14.4442C3.47488 11.2662 5.84577 9.93918 8.0445 9.93918L23.5583 9.93918C27.2722 9.93918 28.7283 12.5575 29.06 15.0215C29.2295 16.2809 29.3807 17.2072 29.9135 21.712C30.4148 25.9501 29.06 29.9656 23.8399 29.9656H8.04445C2.96025 29.9656 1.60896 25.9597 2.12085 21.7059C2.42513 19.1773 2.69177 17.6201 3.08319 14.4442Z" fill="#F99EA3"/>
<path d="M8.04445 29.9656C2.96024 29.9656 1.60896 25.9597 2.12085 21.7059C13.9997 21.7059 17.0935 21.712 29.9135 21.712C30.4148 25.9501 29.06 29.9656 23.8399 29.9656H8.04445Z" fill="#FBB8AB"/>
</svg>

<svg xmlns="http://www.w3.org/2000/svg" width="32" height="32" fill="none"><path fill="#F9C23C" d="M4.498 10.457c.44.32 1.05.27 1.43-.13.38-.39.41-1 .08-1.43l-1.62-2.1c-.41-.52-1.19-.57-1.65-.09l-.52.54c-.46.48-.4 1.26.14 1.65l2.14 1.56Zm.22-1.31c.23-.24.62-.25.86-.01s.25.62.01.86c-.23.25-.62.25-.86.02a.616.616 0 0 1-.01-.87Z"/><path fill="#F99EA3" d="M3.083 14.444c.392-3.178 2.763-4.505 4.961-4.505h15.514c3.714 0 5.17 2.618 5.502 5.082.17 1.26.32 2.186.854 6.691.5 4.238-.854 8.254-6.074 8.254H8.044c-5.084 0-6.435-4.006-5.923-8.26.304-2.529.57-4.086.962-7.262Z"/><path fill="#FBB8AB" d="M8.044 29.966c-5.084 0-6.435-4.006-5.923-8.26 11.879 0 14.972.006 27.792.006.502 4.238-.853 8.254-6.073 8.254H8.044Z"/></svg>
